X: 4361
T: CHORUS FROM "LES HUGUENOTS."
%R: air, march
B: James Kerr "Merry Melodies" v.4 p.38 #361
Z: 2016 John Chambers <jc:trillian.mit.edu>
M: 2/4
L: 1/8
K: C
|:\
e2 c2 | e2 c2 | (3edc (3def | e2 c2 |\
[1 g2 e2 | g2 e2 | (3g^fe (3fga | g3 =f :|\
[2 A2 d2 | A2 d2 | a>g (3fed | c4 H|:\
g2 d2 | g2 d2 | (3f_ed (3edc | d2 G2 |\
g2 d2 | g2 d2 | (3f_ed (3edc | "_D.C."g4 :|

%%sep 1 1 500
%%sep 1 1 500

